packages/foundations/assets/icons/functional/images/transportation/pedestrian_20_inverted.svg

<svg width="20" height="20" viewBox="0 0 20 20" fill="none" xmlns="http://www.w3.org/2000/svg">
<g clip-path="url(#clip0_2214_6744)">
<path fill-rule="evenodd" clip-rule="evenodd" d="M10.3899 6.32799C11.4338 6.98314 12.4768 7.64117 13.5191 8.30207C13.9161 8.55254 14.035 9.07746 13.7845 9.47449C13.5549 9.83844 13.0553 9.99508 12.6121 9.73986C11.9978 9.35502 11.3842 8.9677 10.7712 8.57789C10.612 10.4542 10.5323 11.3923 10.5323 11.3923C10.5866 11.4164 10.7342 11.5158 10.7769 11.5566C11.6506 12.3898 12.5211 13.2303 12.5211 13.2303C12.5922 13.2985 12.7158 13.5097 12.7328 13.5568C13.0817 14.5252 13.4292 15.4949 13.7752 16.4658C13.9336 16.9077 13.7037 17.3944 13.2618 17.5527C12.8538 17.6989 12.3684 17.5066 12.1748 17.0393C11.848 16.1337 11.5228 15.2266 11.1994 14.3181L9.88523 13.0569L7.82236 17.1322C7.61031 17.551 7.09889 17.7186 6.68007 17.5066C6.29346 17.3108 6.0664 16.7531 6.30567 16.3643C7.14397 14.7033 7.98388 13.0439 8.8254 11.3861L9.08123 8.38289L8.0244 8.87608L7.77269 10.3854C7.70114 10.8128 7.22139 11.155 6.79401 11.0834C6.36663 11.0119 6.06748 10.633 6.08496 10.211L6.42248 8.15482C6.46209 7.91823 6.63279 7.62561 6.90144 7.52488C7.79267 7.10615 8.68453 6.69005 9.57703 6.2766C9.80166 6.1718 10.1084 6.1718 10.3899 6.32799ZM10.2105 2.39923C10.9561 2.39923 11.5605 3.00365 11.5605 3.74923C11.5605 4.49482 10.9561 5.09923 10.2105 5.09923C9.46495 5.09923 8.86053 4.49482 8.86053 3.74923C8.86053 3.00365 9.46495 2.39923 10.2105 2.39923Z" fill="#1A1C1F"/>
</g>
<defs>
<clipPath id="clip0_2214_6744">
<rect width="20" height="20" fill="white"/>
</clipPath>
</defs>
</svg>

<svg xmlns="http://www.w3.org/2000/svg" width="20" height="20" fill="none"><g clip-path="url(#a)"><path fill="#1A1C1F" fill-rule="evenodd" d="M10.39 6.328q1.566.982 3.13 1.974a.85.85 0 0 1 .264 1.172.86.86 0 0 1-1.172.266q-.922-.577-1.84-1.162l-.24 2.814c.055.024.202.124.245.165a448 448 0 0 1 1.744 1.673c.071.069.195.28.212.327q.523 1.452 1.042 2.909a.85.85 0 0 1-.513 1.087c-.408.146-.894-.046-1.087-.514q-.49-1.358-.976-2.72l-1.314-1.262-2.063 4.075a.85.85 0 0 1-1.142.375c-.387-.196-.614-.754-.374-1.143q1.257-2.49 2.52-4.978l.255-3.003-1.057.493-.251 1.51c-.072.427-.552.769-.979.697a.85.85 0 0 1-.709-.872l.337-2.056c.04-.237.21-.53.48-.63q1.336-.628 2.675-1.248a.9.9 0 0 1 .813.051m-.18-3.929a1.35 1.35 0 1 1 0 2.7 1.35 1.35 0 0 1 0-2.7" clip-rule="evenodd"/></g><defs><clipPath id="a"><path fill="#fff" d="M0 0h20v20H0z"/></clipPath></defs></svg>
